X: 9352
T: Dancing Eyes
R: jig
M: 6/8
K: Gmajor
|:D|G,B,D GBd|cAA BAG|AFD fed|cAG FDC|
G,B,/C/D G2 d|cAG FGA|d^cd fed|cAF G2:|
|:D|GBd gba|fag fdc|B2 d cAA|BAG AFD|
GB/c/d gba|f/g/ag fdc|B2 d cAF|AGF G2:|

